X: 38112
T: Spórt
R: jig
M: 6/8
K: Dmajor
AdF A~A2|GBE GFG|AdF A~A2|GAB cde|
AdF A~A2|GBE GFG|cdc A2G|1 EAA DFG:|2 EAA D2 B||
c~c2 d~d2|cBc A2g|fed ged|cBc A2e|
f~f2 g~g2|afe d2e|fdF A2F|1 GEA D2 B:|2 GEA D2 A||
AGG AEE|AGE EDD|AGE cde|dcA ~G3|
AGG AEE|AGE EDD|cdc A2G|EAA DFG:|

